dist/img/svg/contacts/tel.svg

<svg width="33" height="33" viewBox="0 0 33 33" fill="none" xmlns="http://www.w3.org/2000/svg">
<path fill-rule="evenodd" clip-rule="evenodd" d="M2.56793 13.6582C2.52248 13.5218 2.38596 13.1508 2.15893 12.5447C1.93159 11.9385 1.77628 11.5181 1.6931 11.2834C1.60999 11.0489 1.50006 10.6888 1.36378 10.204C1.22727 9.71906 1.13254 9.28339 1.07952 8.89708C1.02651 8.51037 1 8.11267 1 7.70392C1 6.31017 1.38631 4.9008 2.15901 3.47688C3.00757 1.94685 3.81052 1.02265 4.5681 0.704639C4.94692 0.537714 5.4657 0.378827 6.12496 0.227345C6.78399 0.0756231 7.31796 0 7.72728 0C7.93918 0 8.09838 0.0229257 8.20449 0.0683784C8.47729 0.158965 8.87873 0.734975 9.40872 1.79535C9.57556 2.08319 9.80267 2.49243 10.0904 3.02242C10.3784 3.55265 10.6434 4.03393 10.8861 4.46569C11.1288 4.89753 11.3634 5.3028 11.5904 5.6813C11.6359 5.7422 11.7685 5.93142 11.9883 6.24958C12.2081 6.56791 12.371 6.8365 12.477 7.05659C12.5829 7.27622 12.636 7.49234 12.636 7.70432C12.636 8.00728 12.4201 8.38587 11.9883 8.84048C11.5564 9.29485 11.0871 9.71165 10.5793 10.0902C10.0719 10.4687 9.60207 10.8703 9.17031 11.2944C8.73847 11.7187 8.5225 12.0673 8.5225 12.3399C8.5225 12.4764 8.56048 12.6468 8.6361 12.8513C8.71172 13.0557 8.77612 13.2111 8.82913 13.3171C8.88215 13.4234 8.98826 13.605 9.14746 13.8627C9.30643 14.1201 9.39375 14.2641 9.40888 14.2944C10.5603 16.3703 11.8787 18.1503 13.3632 19.6355C14.8482 21.1199 16.6283 22.4381 18.704 23.5899C18.7342 23.6051 18.8778 23.6922 19.1361 23.8513C19.3938 24.0109 19.5752 24.1167 19.6809 24.1701C19.7876 24.2224 19.943 24.2873 20.1472 24.363C20.3516 24.4382 20.5221 24.4763 20.6588 24.4763C20.9312 24.4763 21.28 24.2605 21.7044 23.8285C22.1282 23.3967 22.5298 22.9273 22.9085 22.4195C23.2871 21.9115 23.7039 21.4422 24.1582 21.0101C24.6126 20.5786 24.991 20.3625 25.294 20.3625C25.5062 20.3625 25.7222 20.4157 25.9418 20.5213C26.1619 20.6276 26.4305 20.7906 26.749 21.0101C27.0672 21.2303 27.2565 21.3627 27.317 21.4081C27.6955 21.6351 28.1006 21.8699 28.533 22.1123C28.9646 22.3547 29.4459 22.6201 29.9762 22.908C30.5061 23.1959 30.9155 23.4228 31.2029 23.5899C32.2637 24.1197 32.8395 24.5214 32.93 24.7942C32.9757 24.9011 32.9986 25.0599 32.9981 25.2727C32.9981 25.682 32.9226 26.2159 32.7707 26.8748C32.6192 27.5341 32.4607 28.053 32.2934 28.4314C31.9752 29.1896 31.0513 29.9927 29.5214 30.8409C28.0972 31.6135 26.6878 32.0001 25.2941 32.0001C24.8853 32.0001 24.4875 31.9731 24.1009 31.9208C23.7146 31.8674 23.2794 31.7727 22.7939 31.6361C22.3096 31.4996 21.9494 31.3896 21.7146 31.3062C21.4799 31.2228 21.0594 31.0675 20.4533 30.8404C19.8475 30.6125 19.4764 30.4763 19.34 30.4311C17.8553 29.9005 16.5292 29.2718 15.3627 28.5447C13.4232 27.3478 11.4195 25.7151 9.35133 23.6471C7.28326 21.5789 5.65053 19.5747 4.45411 17.6354C3.72694 16.4687 3.09816 15.1431 2.56793 13.6582Z" fill="#577A5B"/>
<path d="M31.93 25.7942C31.8395 25.5214 31.2637 25.1197 30.2029 24.5899C29.9155 24.4228 29.5061 24.1959 28.9762 23.908C28.4459 23.6201 27.9646 23.3547 27.533 23.1123C27.1006 22.8699 26.6955 22.6351 26.317 22.4081C26.2565 22.3627 26.0672 22.2303 25.749 22.0101C25.4305 21.7906 25.1619 21.6276 24.9418 21.5213C24.7222 21.4157 24.5062 21.3625 24.294 21.3625C23.991 21.3625 23.6126 21.5786 23.1582 22.0101C22.7039 22.4422 22.2871 22.9115 21.9085 23.4195C21.5298 23.9273 21.1282 24.3967 20.7044 24.8285C20.28 25.2605 19.9312 25.4763 19.6588 25.4763C19.5221 25.4763 19.3516 25.4382 19.1472 25.3629C18.943 25.2872 18.7876 25.2224 18.6809 25.1701C18.5752 25.1167 18.3938 25.0109 18.136 24.8513C17.8778 24.6922 17.7342 24.6051 17.704 24.5899C15.6283 23.4381 13.8482 22.1199 12.3632 20.6355C10.8787 19.1503 9.56033 17.3703 8.40888 15.2944C8.39375 15.2641 8.30643 15.1201 8.14746 14.8627C7.98826 14.605 7.88215 14.4234 7.82913 14.3171C7.77612 14.2111 7.71172 14.0557 7.6361 13.8512C7.56048 13.6467 7.52251 13.4764 7.52251 13.3399C7.52251 13.0673 7.73847 12.7187 8.17031 12.2944C8.60207 11.8703 9.07189 11.4687 9.57927 11.0902C10.0871 10.7117 10.5564 10.2949 10.9883 9.84048C11.4201 9.38587 11.636 9.00728 11.636 8.70432C11.636 8.49234 11.5829 8.27622 11.477 8.05659C11.371 7.83649 11.2081 7.56791 10.9883 7.24958C10.7685 6.93141 10.6359 6.7422 10.5904 6.6813C10.3634 6.30279 10.1288 5.89754 9.88606 5.46569C9.64335 5.03393 9.37844 4.55265 9.09043 4.02242C8.80267 3.49243 8.57556 3.08319 8.40872 2.79535C7.87873 1.73497 7.47729 1.15897 7.20449 1.06838C7.09838 1.02293 6.93918 1 6.72728 1C6.31796 1 5.78399 1.07562 5.12496 1.22734C4.46569 1.37883 3.94693 1.53771 3.5681 1.70464C2.81052 2.02265 2.00757 2.94684 1.15901 4.47687C0.38631 5.9008 0 7.31016 0 8.70392C0 9.11268 0.0265076 9.51037 0.0795228 9.89708C0.132538 10.2834 0.227265 10.7191 0.363783 11.204C0.500062 11.6888 0.609993 12.0489 0.693098 12.2834C0.776283 12.5181 0.931587 12.9384 1.15893 13.5447C1.38596 14.1508 1.52248 14.5218 1.56793 14.6582C2.09816 16.1431 2.72694 17.4687 3.45411 18.6354C4.65053 20.5747 6.28325 22.5789 8.35133 24.6471C10.4195 26.7152 12.4232 28.3478 14.3627 29.5447C15.5292 30.2718 16.8553 30.9005 18.34 31.4311C18.4764 31.4763 18.8475 31.6125 19.4533 31.8404C20.0594 32.0675 20.4799 32.2228 20.7146 32.3062C20.9494 32.3896 21.3096 32.4996 21.7939 32.6361C22.2794 32.7727 22.7146 32.8674 23.1009 32.9208C23.4875 32.9731 23.8853 33.0001 24.2941 33.0001C25.6878 33.0001 27.0972 32.6135 28.5214 31.8409C30.0513 30.9927 30.9752 30.1896 31.2934 29.4314C31.4607 29.053 31.6192 28.5341 31.7707 27.8748C31.9226 27.2159 31.9981 26.682 31.9981 26.2727C31.9986 26.0599 31.9757 25.9011 31.93 25.7942Z" fill="#78C081"/>
</svg>

<svg width="33" height="33" fill="none" xmlns="http://www.w3.org/2000/svg"><path fill-rule="evenodd" clip-rule="evenodd" d="M2.568 13.658a49.597 49.597 0 00-.41-1.113 87.798 87.798 0 01-.465-1.262 18.59 18.59 0 01-.33-1.079 9.808 9.808 0 01-.283-1.307A8.778 8.778 0 011 7.704C1 6.31 1.386 4.9 2.159 3.477c.849-1.53 1.652-2.454 2.41-2.772.378-.167.897-.326 1.556-.478C6.784.076 7.318 0 7.727 0c.212 0 .371.023.477.068.273.091.675.667 1.205 1.727.167.288.394.697.681 1.227.288.53.553 1.012.796 1.444.243.432.477.837.704 1.215.046.061.178.25.398.569.22.318.383.587.489.807.106.22.159.435.159.647 0 .303-.216.682-.648 1.136a10.9 10.9 0 01-1.409 1.25c-.507.379-.977.78-1.409 1.204-.432.425-.647.773-.647 1.046 0 .136.037.307.113.511.076.205.14.36.193.466.053.106.16.288.318.546.16.257.247.401.262.431 1.151 2.076 2.47 3.856 3.954 5.341 1.485 1.485 3.265 2.803 5.341 3.955.03.015.174.102.432.261.258.16.44.266.545.32.107.051.262.116.466.192.205.075.375.113.512.113.272 0 .621-.215 1.045-.648a13.7 13.7 0 001.204-1.409c.38-.508.796-.977 1.25-1.409.455-.431.833-.648 1.136-.648.212 0 .428.054.648.16.22.106.488.269.807.488.318.22.508.353.568.398.378.227.784.462 1.216.704.432.243.913.508 1.443.796.53.288.94.515 1.227.682 1.06.53 1.637.931 1.727 1.204.046.107.069.266.068.479 0 .409-.075.943-.227 1.602-.152.66-.31 1.178-.478 1.556-.318.759-1.242 1.562-2.772 2.41-1.424.772-2.833 1.16-4.227 1.16a8.94 8.94 0 01-1.193-.08 9.881 9.881 0 01-1.307-.285 18.625 18.625 0 01-1.08-.33 93.361 93.361 0 01-1.26-.466 44.34 44.34 0 00-1.114-.409c-1.485-.53-2.81-1.16-3.977-1.886-1.94-1.197-3.944-2.83-6.012-4.898-2.068-2.068-3.7-4.072-4.897-6.012-.727-1.166-1.356-2.492-1.886-3.977z" fill="#577A5B"/><path d="M31.93 25.794c-.09-.273-.666-.674-1.727-1.204a52.534 52.534 0 00-1.227-.682 113.85 113.85 0 01-1.443-.796 48.057 48.057 0 01-1.216-.704c-.06-.045-.25-.178-.568-.398a6.398 6.398 0 00-.807-.489 1.488 1.488 0 00-.648-.159c-.303 0-.681.217-1.136.648-.454.432-.87.901-1.25 1.41a13.7 13.7 0 01-1.204 1.408c-.424.433-.773.648-1.045.648-.137 0-.307-.038-.512-.113a5.315 5.315 0 01-.466-.193 8.514 8.514 0 01-.545-.319 13.327 13.327 0 00-.432-.261c-2.076-1.152-3.856-2.47-5.34-3.954-1.485-1.486-2.804-3.266-3.955-5.342-.015-.03-.103-.174-.262-.431a8.219 8.219 0 01-.318-.546 4.934 4.934 0 01-.193-.466 1.538 1.538 0 01-.113-.511c0-.273.215-.621.647-1.046a13.68 13.68 0 011.41-1.204c.507-.378.976-.795 1.408-1.25.432-.454.648-.833.648-1.136 0-.212-.053-.428-.159-.647a6.313 6.313 0 00-.489-.807 29.77 29.77 0 00-.398-.569 50.1 50.1 0 01-.704-1.215c-.243-.432-.508-.913-.796-1.444-.287-.53-.514-.939-.681-1.227-.53-1.06-.932-1.636-1.205-1.727C7.098 1.023 6.94 1 6.727 1c-.409 0-.943.076-1.602.227-.66.152-1.178.31-1.557.478-.757.318-1.56 1.242-2.409 2.772C.386 5.9 0 7.31 0 8.704c0 .409.027.806.08 1.193.053.386.147.822.284 1.307.136.485.246.845.33 1.08.082.234.238.654.465 1.26.227.607.363.978.409 1.114.53 1.485 1.159 2.81 1.886 3.977 1.197 1.94 2.83 3.944 4.897 6.012 2.068 2.068 4.072 3.7 6.012 4.898 1.166.727 2.492 1.355 3.977 1.886.136.045.508.181 1.113.41.606.227 1.027.382 1.262.465.234.084.595.194 1.079.33.485.137.92.231 1.307.285.387.052.784.08 1.193.08 1.394 0 2.803-.387 4.227-1.16 1.53-.848 2.454-1.651 2.772-2.41.168-.378.326-.897.478-1.556.152-.66.227-1.193.227-1.602 0-.213-.022-.372-.068-.479z" fill="#78C081"/></svg>
